!!!!SEGMENT: pl-kk--kk-i-32--002_anonim--missa-sabbativa-et-in-terra.krn
!!!cenid: 17xx:2237
!!!COM: Anonim
!!!COM-rismid: pe30004985
!!!CDT:
!!!CNT:
!!!OPR: Missa Sabbativa
!!!OTL: Et in terra
!!!OMV: 002
!!!PDT:
!!!AGN: Sacred; Mass
!!!SMS-siglum: PL-Kk
!!!SMS-shelfmark: Kk.I.32
!!!SMS-shelfwork: 001-002 M
!!!SMS-variant:
!!!SMS-altvar:
!!!NIFC-rismid: 1001156562
!!!URL-scan: http://repozytorium.nifc.pl/skany/pl-kk-nut--i-32
!!!ONB-nifc: UWAGA: części Mszy: 1. Kyrie, 2. Et in terra, 3. Sanctus, 4. Agnus Dei.
!!!key:
**kern	**text	**kern	**text	**kern	**text	**kern	**text
*part4	*part4	*part3	*part3	*part2	*part2	*part1	*part1
*staff4	*staff4	*staff3	*staff3	*staff2	*staff2	*staff1	*staff1
*Iempty	*	*Itenor	*	*Itenor	*	*Ialto	*
*I"Baſso	*	*I"Tenore in Chorali.	*	*I"Tenore 1mo.	*	*I"Alto	*
*I'B	*	*I'T2	*	*I'T1	*	*I'A	*
*clefF4	*	*clefC4	*	*clefC1	*	*clefC3	*
*k[b-]	*	*k[b-]	*	*k[b-]	*	*k[b-]	*
*F:	*	*F:	*	*F:	*	*F:	*
*M2/1	*	*M2/1	*	*M2/1	*	*M2/1	*
*met(C|)	*	*met(C|)	*	*met(C|)	*	*met(C|)	*
=1-	=1-	=1-	=1-	=1-	=1-	=1-	=1-
*2\right	*	*2\right	*	*2\right	*	*2\right	*
!LO:TX:a:t=P:problem=w źródle przy kluczu znaki BB- i B-, jeden nad drugim	!	!	!	!	!	!	!
2.F\	Et	2.c\	Et	2.a\	Et	2.f\	Et
!	!	!LO:TX:t=P:problem=kreska pseudotaktowa	!	!	!	!	!
4F\	in	4c\	in	4a\	in	4f\	in
2C/	ter-	2c\	ter-	2g/	ter-	2f\	ter-
!LO:TX:t=P:problem=kreska pseudotaktowa	!	!LO:TX:t=P:problem=kreska pseudotaktowa	!	!LO:TX:t=P:problem=kreska pseudotaktowa	!	!LO:TX:t=P:problem=kreska pseudotaktowa	!
2C/	-ra	2c\	-ra	2g/	-ra	2e\	-ra
=2-	=2-	=2-	=2-	=2-	=2-	=2-	=2-
2F,>\	pax	2c\	pax	2a\	pax	2f\	pax
!LO:TX:t=P:problem=kreska pseudotaktowa	!	!LO:TX:t=P:problem=kreska pseudotaktowa	!	!	!	!LO:TX:t=P:problem=kreska pseudotaktowa	!
!	!	!	!	!LO:TX:t=P:problem=kreska pseudotaktowa	!	!	!
2C/	ho-	2c\	ho-	2g\	ho-	2e\	ho-
2.F\	-mi-	2.c\	-mi-	2.a\	-mi-	2.f\	-mi-
!LO:TX:t=P:problem=kreska pseudotaktowa	!	!	!	!	!	!	!
4F\	-ni-	4c\	-ni-	4a\	-ni-	4f\	-ni-
=3-	=3-	=3-	=3-	=3-	=3-	=3-	=3-
!LO:TX:t=P:problem=kreska pseudotaktowa	!	!LO:TX:t=P:problem=kreska pseudotaktowa	!	!LO:TX:t=P:problem=kreska pseudotaktowa	!	!	!
1C,<	-b(us)	1c	-b(us)	1g	-b(us)	2e,<\	-b(us)
.	.	.	.	.	.	1g	bo-
2.F\	bo-	2.c\	bo-	2r	.	.	.
!	!	!	!	!	!	!LO:TX:t=P:problem=kreska pseudotaktowa	!
.	.	.	.	1cc\	bo-	2f\	-nae
!	!	!LO:TX:t=P:problem=kreska pseudotaktowa	!	!	!	!	!
4F\	-nae	4c\	-nae	.	.	.	.
=4-	=4-	=4-	=4-	=4-	=4-	=4-	=4-
*	*ij	*	*ij	*	*	*	*ij
2.BB-/	bo-	2.d\	bo-	.	.	2f\	bo-
!	!	!	!	!LO:TX:t=P:problem=kreska pseudotaktowa	!	!	!
.	.	.	.	2b-\	-nae	4g\	-nae
!LO:TX:t=P:problem=kreska pseudotaktowa	!	!	!	!	!	!	!
4BB-/	-nae	4d\	-nae	.	.	4f\	.
*	*Xij	*	*Xij	*	*	*	*Xij
2C/	Vo-	2c\	Vo-	2b-\	vo-	2e\	Vo-
!	!	!LO:TX:t=P:problem=kreska pseudotaktowa	!	!	!	!LO:TX:t=P:problem=kreska pseudotaktowa	!
2F\	-lun-	2c\	-lun-	2a\	-lun-	2f\	-lun-
=5-	=5-	=5-	=5-	=5-	=5-	=5-	=5-
!LO:TX:t=P:problem=kreska pseudotaktowa	!	!	!	!LO:TX:t=P:problem=kreska pseudotaktowa	!	!	!
1C	-ta-	1c	-ta-	1g	-ta-	(>2f\	-ta-
.	.	.	.	.	.	2e\)	.
2F,<\	-tis	2c,>\	-tis	2a,<\	-tis	2f,>\	-tis
!LO:TX:t=P:problem=kreska pseudotaktowa	!	!LO:TX:t=P:problem=kreska pseudotaktowa	!	!LO:TX:t=P:problem=kreska pseudotaktowa	!	!LO:TX:t=P:problem=kreska pseudotaktowa	!
2F\	Lau-	2c\	Lau-	2a\	Lau-	2f\	Lau-
!	!	!	!	!	!	!LO:LB:g=original	!
=6-	=6-	=6-	=6-	=6-	=6-	=6-	=6-
2B-\	-da-	2d\	-da-	2.b-\	-da-	2d\	-da-
!LO:TX:t=P:problem=kreska pseudotaktowa	!	!LO:TX:t=P:problem=kreska pseudotaktowa	!	!	!	!LO:TX:t=P:problem=kreska pseudotaktowa	!
2G\	-m(us)	2B-\	-m(us)	.	.	2e\	-m(us)
!	!	!	!	!LO:TX:t=P:problem=kreska pseudotaktowa	!	!	!
.	.	.	.	4b-\	-m(us)	.	.
2F,>\	Te	2c,>\	Te,	2a,>\	Te	2f\	Te
4E\	be-	4c\	be-	4g/	be-	4e\	be-
!LO:TX:t=P:problem=kreska pseudotaktowa	!	!LO:TX:t=P:problem=kreska pseudotaktowa	!	!LO:TX:t=P:problem=kreska pseudotaktowa	!	!LO:TX:t=P:problem=kreska pseudotaktowa	!
4E\	-ne-	4c\	-ne-	4g/	-ne-	4e\	-ne-
!LO:LB:g=original	!	!LO:LB:g=original	!	!	!	!	!
=7-	=7-	=7-	=7-	=7-	=7-	=7-	=7-
2F\	-di-	2c\	-di-	2a\	-di-	2f\	-di-
4D/	-ci-	4d\	-ci-	4bn\	-ci-	4f\	-ci-
!LO:TX:t=P:problem=kreska pseudotaktowa	!	!LO:TX:t=P:problem=kreska pseudotaktowa	!	!	!	!LO:TX:t=P:problem=kreska pseudotaktowa	!
4D/	-mus	4d\	-m(us)	4b\	-m(us)	4f\	-m(us)
!LO:TX:t=P:problem=kreska pseudotaktowa	!	!	!	!LO:TX:t=P:problem=kreska pseudotaktowa	!	!	!
1C,>	Te	2G,</	Te	1cc	Te	2e\	Te
.	.	1c\	a-	.	.	4e\	a-
!	!	!	!	!	!	!LO:TX:t=P:problem=kreska pseudotaktowa	!
.	.	.	.	.	.	4e\	-do-
!	!	!	!	!LO:LB:g=original	!	!	!
=8-	=8-	=8-	=8-	=8-	=8-	=8-	=8-
2.F\	a-	.	.	00r	.	2f\	-ra-
!	!	!	!	!	!	!LO:TX:t=P:problem=kreska pseudotaktowa	!
.	.	1d	-do-	.	.	2f,>\	-m(us)
!LO:TX:t=P:problem=kreska pseudotaktowa	!	!	!	!	!	!	!
4F\	-do-	.	.	.	.	.	.
1G	-ra-	.	.	.	.	2d\	a-
.	.	1B-\	-ra-	.	.	2d\	-do-
=9-	=9-	=9-	=9-	=9-	=9-	=9-	=9-
!LO:TX:t=P:problem=kreska pseudotaktowa	!	!	!	!	!	!	!
1E,<	-m(us)	.	.	.	.	2.g\	-ra-
!	!	!LO:TX:t=P:problem=kreska pseudotaktowa	!	!	!	!	!
.	.	2c\	.	.	.	.	.
!	!	!	!	!	!	!LO:TX:t=P:problem=kreska pseudotaktowa	!
.	.	.	.	.	.	4g\	-m(us)
*	*ij	*	*	*	*	*	*ij
2F\	a-	4A\	.	.	.	2f\	a-
.	.	4B-\	.	.	.	.	.
!LO:TX:t=P:problem=kreska pseudotaktowa	!	!	!	!	!	!LO:TX:t=P:problem=kreska pseudotaktowa	!
2C/	-do-	1c\	-m(us)	.	.	2e\	-do-
=10-	=10-	=10-	=10-	=10-	=10-	=10-	=10-
2.D/	-ra-	.	.	2re	.	2.f\	-ra-
!	!	!LO:TX:t=P:problem=kreska pseudotaktowa	!	!LO:TX:t=P:problem=kreska pseudotaktowa	!	!	!
.	.	2Bn\	.	2f/	glo-	.	.
4D/	-m(us)	.	.	.	.	4f\	-m(us)
*	*Xij	*	*	*	*	*	*Xij
2C,</	Te	2c,>\	Te	2cc\	-ri-	2e,>\	Te
!LO:TX:t=P:problem=kreska pseudotaktowa	!	!LO:TX:t=P:problem=kreska pseudotaktowa	!	!LO:TX:t=P:problem=kreska pseudotaktowa	!	!LO:TX:t=P:problem=kreska pseudotaktowa	!
2F\	glo-	2c\	glo-	2a\	-fi-	2f\	glo-
=11-	=11-	=11-	=11-	=11-	=11-	=11-	=11-
2BB-/	-ri-	2d\	-ri-	2b-y\	-ca-	2f\	-ri-
!LO:TX:t=P:problem=kreska pseudotaktowa	!	!LO:TX:t=P:problem=kreska pseudotaktowa	!	!LO:TX:t=P:problem=kreska pseudotaktowa	!	!LO:TX:t=P:problem=kreska pseudotaktowa	!
2F\	-fi-	2c\	-fi-	2a\	.	2f\	-fi-
!	!	!	!	!	!	!LO:LB:g=original	!
2.C/	-ca-	2.c\	-ca-	2.g/	-m(us)	2f\	-ca-
.	.	.	.	.	.	2e\	-m(us)
4C/	-m(us)	4c\	-m(us)	4g/	.	.	.
=12-	=12-	=12-	=12-	=12-	=12-	=12-	=12-
!LO:TX:t=P:problem=kreska pseudotaktowa	!	!LO:TX:t=P:problem=kreska pseudotaktowa	!	!LO:TX:t=P:problem=kreska pseudotaktowa	!	!LO:TX:t=P:problem=kreska pseudotaktowa	!
1F	Te.	1c,<	Te.	1a	Te	1f	Te
!	!	!	!	!LO:TX:t=P:problem=kreska pseudotaktowa	!	!	!
00r	.	2c\	Gra-	1ree	.	2e\	Gra-
.	.	4c\	-ti-	.	.	4e\	-ti-
!	!	!LO:TX:t=P:problem=kreska pseudotaktowa	!	!	!	!LO:TX:t=P:problem=kreska pseudotaktowa	!
.	.	4c\	-as	.	.	4e\	-as
=13-	=13-	=13-	=13-	=13-	=13-	=13-	=13-
.	.	2d\	a-	2a\	Gra-	2f\	a-
.	.	4d\	-gi-	4a\	-ti-	4f\	-gi-
!	!	!LO:TX:t=P:problem=kreska pseudotaktowa	!	!LO:TX:t=P:problem=kreska pseudotaktowa	!	!LO:TX:t=P:problem=kreska pseudotaktowa	!
.	.	4d\	-m(us)	4a\	-as	4f\	-m(us)
*	*	*	*ij	*	*	*	*ij
!	!	!LO:LB:g=original	!	!	!	!	!
.	.	2B-\	a-	2b-\	a-	2d\	a-
.	.	4B-\	-gi-	4b-\	-gi-	4g\	-gi-
!	!	!LO:TX:t=P:problem=kreska pseudotaktowa	!	!LO:TX:t=P:problem=kreska pseudotaktowa	!	!LO:TX:t=P:problem=kreska pseudotaktowa	!
.	.	4B-\	-m(us)	4b-\	-m(us)	4f\	-m(us)
*	*	*	*Xij	*	*	*	*Xij
=14-	=14-	=14-	=14-	=14-	=14-	=14-	=14-
*	*	*	*	*	*ij	*	*
.	.	2c\	Ti-	2g/	a-	4e\	ti-
.	.	.	.	.	.	4e,<\	-bi
!	!	!LO:TX:t=P:problem=kreska pseudotaktowa	!	!	!	!	!
.	.	2c\	-bi	4g/	-gi-	4e\	pro-
!	!	!	!	!LO:TX:t=P:problem=kreska pseudotaktowa	!	!LO:TX:t=P:problem=kreska pseudotaktowa	!
.	.	.	.	4g/	-m(us)	4e\	-pter
*	*	*	*	*	*Xij	*	*
!LO:TX:t=P:problem=kreska pseudotaktowa	!	!	!	!	!	!	!
00r	.	2A\	pro-	4a\	ti-	2f\	ma-
.	.	.	.	4a\	-bi	.	.
!	!	!LO:TX:t=P:problem=kreska pseudotaktowa	!	!	!	!LO:TX:t=P:problem=kreska pseudotaktowa	!
.	.	2d\	-pter	4a\	pro-	2f\	-gna(m)
!	!	!	!	!LO:TX:t=P:problem=kreska pseudotaktowa	!	!	!
.	.	.	.	4a\	-pter	.	.
=15-	=15-	=15-	=15-	=15-	=15-	=15-	=15-
*	*	*	*	*	*	*	*ij
.	.	2G/	ma-	2b-\	ma-	4f\	pro-
.	.	.	.	.	.	4f\	-pter
!	!	!	!	!LO:TX:t=P:problem=kreska pseudotaktowa	!	!	!
.	.	2c\	-gna(m)	2b-\	-gna(m)	4e\	ma-
!	!	!	!	!	!	!LO:TX:t=P:problem=kreska pseudotaktowa	!
.	.	.	.	.	.	4e\	-gna(m)
*	*	*	*	*	*	*	*Xij
.	.	2F/	glo-	4a\	glo-	2f\	glo-
.	.	.	.	4b-\	-ri-	.	.
.	.	4c\	-ri-	1cc\	-am	4e\	-ri-
!	!	!LO:TX:t=P:problem=kreska pseudotaktowa	!	!	!	!LO:TX:t=P:problem=kreska pseudotaktowa	!
.	.	4c\	-am	.	.	4e\	-am
=16-	=16-	=16-	=16-	=16-	=16-	=16-	=16-
!	!	!LO:TX:t=P:problem=kreska pseudotaktowa	!	!	!	!	!
.	.	1G	tu-	.	.	1d	tu-
!	!	!	!	!LO:TX:t=P:problem=♮ above	!	!	!
!	!	!	!	!LO:TX:t=P:problem=kreska pseudotaktowa	!	!	!
.	.	.	.	2bn\	tu-	.	.
!	!	!LO:TX:t=P:problem=kreska pseudotaktowa	!	!LO:TX:t=P:problem=kreska pseudotaktowa	!	!LO:TX:t=P:problem=kreska pseudotaktowa	!
!	!	!	!	!LO:LB:g=original	!	!	!
2C/	Do-	1G	-am.	1cc	-am.	1e	-am
4C/	-mi-	.	.	.	.	.	.
!LO:TX:t=P:problem=kreska pseudotaktowa	!	!	!	!	!	!	!
4C/	-ne	.	.	.	.	.	.
!	!	!	!	!	!	!LO:LB:g=original	!
=17-	=17-	=17-	=17-	=17-	=17-	=17-	=17-
*	*ij	*	*	*	*	*	*
2c\	Do-	00r	.	2g/	Do-	2e\	Do-
4c\	-mi-	.	.	4g/	-mi-	4e\	-mi-
!LO:TX:t=P:problem=kreska pseudotaktowa	!	!	!	!LO:TX:t=P:problem=kreska pseudotaktowa	!	!LO:TX:t=P:problem=kreska pseudotaktowa	!
4c\	-ne	.	.	4g/	-ne	4e\	-ne
*	*Xij	*	*	*	*ij	*	*ij
!LO:LB:g=original	!	!	!	!	!	!	!
2A\	Do-	.	.	2a\	Do-	2f\	Do-
4d\	-mi-	.	.	4a\	-mi-	4f\	-mi-
!LO:TX:t=P:problem=kreska pseudotaktowa	!	!	!	!LO:TX:t=P:problem=kreska pseudotaktowa	!	!LO:TX:t=P:problem=kreska pseudotaktowa	!
4d\	-ne	.	.	4a\	-ne	4f\	-ne
*	*	*	*	*	*Xij	*	*Xij
=18-	=18-	=18-	=18-	=18-	=18-	=18-	=18-
2G\	De-	.	.	2.b-y\	De-	2f\	De-
!LO:TX:t=P:problem=kreska pseudotaktowa	!	!	!	!	!	!LO:TX:t=P:problem=kreska pseudotaktowa	!
2c,<\	-us	.	.	.	.	2e\	-us
!	!	!	!	!LO:TX:t=P:problem=kreska pseudotaktowa	!	!	!
.	.	.	.	4b-\	-us	.	.
2F,>\	Rex	.	.	2a,>\	Rex	2f\	Rex
!LO:TX:t=P:problem=kreska pseudotaktowa	!	!	!	!LO:TX:t=P:problem=kreska pseudotaktowa	!	!	!
2C/	cae-	.	.	2g\	cae-	2e\	cae-
=19-	=19-	=19-	=19-	=19-	=19-	=19-	=19-
!	!	!LO:TX:t=P:problem=kreska pseudotaktowa	!	!	!	!	!
1F	-les-	1r	.	1a	-les-	1f	-le-
!LO:TX:t=P:problem=kreska pseudotaktowa	!	!	!	!LO:TX:t=P:problem=kreska pseudotaktowa	!	!LO:TX:t=P:problem=kreska pseudotaktowa	!
1C,<	-tis	2c\	De-	1g	-tis	1e	-stis
!	!	!LO:TX:t=P:problem=kreska pseudotaktowa	!	!	!	!	!
.	.	2c\	-us	.	.	.	.
=20-	=20-	=20-	=20-	=20-	=20-	=20-	=20-
!	!	!	!	!LO:TX:t=P:problem=kreska pseudotaktowa	!	!	!
2F\	De-	2c\	Pa-	0r	.	2r	.
!LO:TX:t=P:problem=kreska pseudotaktowa	!	!	!	!	!	!	!
2F\	-us	2d\	.	.	.	1f	De-
(>2F\	Pa-	2c\	.	.	.	.	.
!LO:TX:t=P:problem=kreska pseudotaktowa	!	!LO:TX:t=P:problem=kreska pseudotaktowa	!	!	!	!LO:TX:t=P:problem=kreska pseudotaktowa	!
2G\)	.	2B-\	.	.	.	2e\	-us
=21-	=21-	=21-	=21-	=21-	=21-	=21-	=21-
*	*	*	*	*	*	*	*ij
2F\	.	2c\	.	2a\	De-	2f\	De-
*	*	*custos:c	*	*	*	*	*
!LO:TX:t=P:problem=kreska pseudotaktowa	!	!LO:TX:t=P:problem=kreska pseudotaktowa	!	!LO:TX:t=P:problem=kreska pseudotaktowa	!	!	!
2BB-/	.	2d\	.	2b-\	-us	2f\	-us
*	*	*	*	*	*	*	*Xij
!	!	!LO:LB:g=original	!	!	!	!	!
2C,</	-ter	2c,<\	-ter	2b-\	Pa-	2e\	Pa-
!LO:TX:t=P:problem=kreska pseudotaktowa	!	!LO:TX:t=P:problem=kreska pseudotaktowa	!	!	!	!	!
2F\	Om-	2c\	om-	4a\	-ter	4f\	-ter
!	!	!	!	!LO:TX:t=P:problem=kreska pseudotaktowa	!	!LO:TX:t=P:problem=kreska pseudotaktowa	!
.	.	.	.	4a\	O-	4f\	O-
=22-	=22-	=22-	=22-	=22-	=22-	=22-	=22-
2.C/	-ni-	2.c\	-ni-	2.g/	-mni-	2f\	-mni-
.	.	.	.	.	.	2e\	-po-
!	!	!	!	!LO:TX:t=P:problem=kreska pseudotaktowa	!	!	!
4C/	-po-	4c\	-po-	4g/	-po-	.	.
!LO:TX:t=P:problem=kreska pseudotaktowa	!	!LO:TX:t=P:problem=kreska pseudotaktowa	!	!LO:TX:t=P:problem=kreska pseudotaktowa	!	!LO:TX:t=P:problem=kreska pseudotaktowa	!
1F	-tens	1c	-tens	1a	-tens	1f	-tens
!	!	!	!	!	!	!LO:LB:g=original	!
=23-	=23-	=23-	=23-	=23-	=23-	=23-	=23-
!	!	!LO:TX:t=P:problem=kreska pseudotaktowa	!	!	!	!LO:TX:t=P:problem=kreska pseudotaktowa	!
00r	.	00r	.	2f/	Do-	1rg	.
.	.	.	.	4f/	-mi-	.	.
!	!	!	!	!LO:TX:t=P:problem=kreska pseudotaktowa	!	!	!
.	.	.	.	4f/	-ne	.	.
!	!	!	!	!LO:LB:g=original	!	!	!
.	.	.	.	2cc\	Fi-	2c/	Do-
!	!	!	!	!LO:TX:t=P:problem=kreska pseudotaktowa	!	!	!
.	.	.	.	2g\	-li	4c/	-mi-
!	!	!	!	!	!	!LO:TX:t=P:problem=kreska pseudotaktowa	!
.	.	.	.	.	.	4c/	-ne
=24-	=24-	=24-	=24-	=24-	=24-	=24-	=24-
.	.	.	.	2a\	u-	2f\	Fi-
!	!	!	!	!LO:TX:t=P:problem=kreska pseudotaktowa	!	!	!
.	.	.	.	2cc\	-ni-	2c/	-li
.	.	.	.	2b-\	-ge-	4d\	u-
.	.	.	.	.	.	4e\	-ni-
!	!	!	!	!LO:TX:t=P:problem=kreska pseudotaktowa	!	!	!
.	.	.	.	2a\	.	1f\	-ge-
=25-	=25-	=25-	=25-	=25-	=25-	=25-	=25-
!LO:TX:t=P:problem=kreska pseudotaktowa	!	!	!	!	!	!	!
1r	.	2r	.	2.g/	-ni-	.	.
.	.	2c\	JE-	.	.	2e\	-ni-
.	.	.	.	4g/	-te	.	.
!	!	!	!	!LO:TX:t=P:problem=kreska pseudotaktowa	!	!LO:TX:t=P:problem=kreska pseudotaktowa	!
2r	.	2F/	.	1a	.	1f	-te
!LO:TX:t=P:problem=kreska pseudotaktowa	!	!LO:TX:t=P:problem=kreska pseudotaktowa	!	!	!	!	!
2F\	JE-	2A/	.	.	.	.	.
!LO:LB:g=original	!	!	!	!	!	!	!
=26-	=26-	=26-	=26-	=26-	=26-	=26-	=26-
2C/	.	2G/	.	2r	.	2e\	JE-
!LO:TX:t=P:problem=kreska pseudotaktowa	!	!	!	!LO:TX:t=P:problem=kreska pseudotaktowa	!	!	!
2E\	.	1c	.	2cc\	JE-	2g\	.
2D\	.	.	.	2f/	.	2f\	.
!LO:TX:t=P:problem=kreska pseudotaktowa	!	!LO:TX:t=P:problem=kreska pseudotaktowa	!	!	!	!	!
2G\	.	[<2B-\	.	4b-\	.	4g\	.
!	!	!	!	!LO:TX:t=P:problem=kreska pseudotaktowa	!	!LO:TX:t=P:problem=kreska pseudotaktowa	!
.	.	.	.	4a\	.	4f\	.
=27-	=27-	=27-	=27-	=27-	=27-	=27-	=27-
2C/	.	2B-\]	.	2g\	-su	2e\	-su
!	!	!	!	!LO:TX:t=P:problem=kreska pseudotaktowa	!	!LO:TX:t=P:problem=kreska pseudotaktowa	!
1F	.	2A/	.	2a\	.	2f\	.
*	*	*	*	*	*ij	*	*
.	.	4Bn\	-su	2.g/	Je-	2.g\	Chri-
.	.	4G/	.	.	.	.	.
(>4E\	-su	1c\	X-	.	.	.	.
!	!	!	!	!LO:TX:t=P:problem=kreska pseudotaktowa	!	!	!
4F\)	.	.	.	4a\	-su	8f\L	.
*	*	*	*	*	*Xij	*	*
.	.	.	.	.	.	8e\J	.
=28-	=28-	=28-	=28-	=28-	=28-	=28-	=28-
1G	X-	.	.	1g	x-	1d	.
!	!	!LO:TX:t=P:problem=kreska pseudotaktowa	!	!	!	!	!
.	.	2Bn\	-te	.	.	.	.
*	*	*	*	*	*	*custos:e	*
!LO:TX:t=P:problem=kreska pseudotaktowa	!	!LO:TX:t=P:problem=kreska pseudotaktowa	!	!LO:TX:t=P:problem=kreska pseudotaktowa	!	!LO:TX:t=P:problem=kreska pseudotaktowa	!
1C	-te	1c	.	1g	-te	1e	-ste.
!	!	!	!	!	!	!LO:PB:g=original	!
=29-	=29-	=29-	=29-	=29-	=29-	=29-	=29-
2c\	Do-	00r	.	2g/	Do-	2e\	Do-
4c\	-mi-	.	.	4g/	-mi-	4e\	-mi-
!LO:TX:t=P:problem=kreska pseudotaktowa	!	!	!	!LO:TX:t=P:problem=kreska pseudotaktowa	!	!LO:TX:t=P:problem=kreska pseudotaktowa	!
4c,<\	-ne	.	.	4g/	-ne	4e\	-ne
*	*ij	*	*	*	*ij	*	*ij
!	!	!	!	!LO:LB:g=original	!	!	!
2A\	Do-	.	.	2a\	Do-	2f\	Do-
4d\	-mi-	.	.	4a\	-mi-	4f\	-mi-
!LO:TX:t=P:problem=kreska pseudotaktowa	!	!	!	!LO:TX:t=P:problem=kreska pseudotaktowa	!	!LO:TX:t=P:problem=kreska pseudotaktowa	!
4d\	-ne	.	.	4a\	-ne	4f\	-ne
*	*Xij	*	*	*	*Xij	*	*Xkij
=30-	=30-	=30-	=30-	=30-	=30-	=30-	=30-
2G\	De-	.	.	2.b-\	De-	2f\	De-
!LO:TX:t=P:problem=kreska pseudotaktowa	!	!	!	!	!	!LO:TX:t=P:problem=kreska pseudotaktowa	!
2c,<\	-us	.	.	.	.	2e\	-us
!	!	!	!	!LO:TX:t=P:problem=kreska pseudotaktowa	!	!	!
.	.	.	.	4b-\	-us	.	.
2F\	a-	.	.	2a\	a-	2f\	a-
!LO:TX:t=P:problem=kreska pseudotaktowa	!	!	!	!LO:TX:t=P:problem=kreska pseudotaktowa	!	!LO:TX:t=P:problem=kreska pseudotaktowa	!
2C/	-gn(us)	.	.	2g/	-gn(us)	2e\	-gnus
=31-	=31-	=31-	=31-	=31-	=31-	=31-	=31-
!	!	!LO:TX:t=P:problem=kreska pseudotaktowa	!	!	!	!	!
1F	De-	1rA	.	1a	De-	1f	De-
!LO:TX:t=P:problem=kreska pseudotaktowa	!	!	!	!	!	!LO:TX:t=P:problem=kreska pseudotaktowa	!
1C,<	-i	2c\	Fi-	1g	-i	1e	-i
.	.	4c\	-li-	.	.	.	.
.	.	4c\	-us	.	.	.	.
!LO:LB:g=original	!	!	!	!	!	!	!
=32-	=32-	=32-	=32-	=32-	=32-	=32-	=32-
*	*	*	*ij	*	*	*	*
*	*	*	*	*custos:a	*	*	*
!	!	!	!	!LO:TX:t=P:problem=kreska pseudotaktowa	!	!	!
2F\	Fi-	2c\	Fi-	0r	.	2r	.
4F\	-li-	4d\	-li-	.	.	1f	Fi-
!LO:TX:t=P:problem=kreska pseudotaktowa	!	!LO:TX:t=P:problem=kreska pseudotaktowa	!	!	!	!	!
4F\	-us	4d\	-us	.	.	.	.
*	*ij	*	*Xij	*	*	*	*
!	!	!LO:LB:g=original	!	!	!	!	!
2F\	Fi-	2c\	pa-	.	.	.	.
!	!	!LO:TX:t=P:problem=kreska pseudotaktowa	!	!	!	!	!
4G\	-li-	2B-y\	.	.	.	4e\	-li-
!LO:TX:t=P:problem=kreska pseudotaktowa	!	!	!	!	!	!LO:TX:t=P:problem=kreska pseudotaktowa	!
!	!	!	!	!LO:TX:b:i:t=Cito	!	!	!
4G\	-us	.	.	.	.	4e\	-us
*	*Xij	*	*	*	*	*	*
!	!	!	!	!LO:LB:g=original	!	!	!
=33-	=33-	=33-	=33-	=33-	=33-	=33-	=33-
*	*	*	*	*	*	*	*ij
(>2F\	Pa-	2c\	.	2a\	Fi-	2f\	Fi-
!LO:TX:t=P:problem=kreska pseudotaktowa	!	!	!	!	!	!	!
2BB-/)	.	2d\	.	4b-\	-li-	4f\	-li-
!	!	!	!	!LO:TX:t=P:problem=kreska pseudotaktowa	!	!LO:TX:t=P:problem=kreska pseudotaktowa	!
.	.	.	.	4b-\	-us	4f\	-us
*	*	*	*	*	*ij	*	*Xij
!	!	!LO:TX:t=P:problem=kreska pseudotaktowa	!	!	!	!	!
2C/	.	[<1c	.	2b-\	Fi-	2e\	Pa-
!LO:TX:t=P:problem=kreska pseudotaktowa	!	!	!	!	!	!	!
2F\	.	.	.	4a/	-li-	1f\	.
!	!	!	!	!LO:TX:t=P:problem=kreska pseudotaktowa	!	!	!
.	.	.	.	4a/	-us	.	.
*	*	*	*	*	*Xij	*	*
=34-	=34-	=34-	=34-	=34-	=34-	=34-	=34-
2c\	.	1c]	.	1g	Pa-	.	.
!LO:TX:t=P:problem=kreska pseudotaktowa	!	!	!	!	!	!LO:TX:t=P:problem=kreska pseudotaktowa	!
2C/	-tris	.	.	.	.	2e\	.
!	!	!	!	!LO:TX:t=P:problem=kreska pseudotaktowa	!	!LO:TX:t=P:problem=kreska pseudotaktowa	!
2F,>\	.	2c,<\	-tris	1a	-tris	1f	-tris
!	!	!LO:TX:t=P:problem=kreska pseudotaktowa	!	!	!	!	!
2F\	Qui	2c\	Qui	.	.	.	.
!	!	!	!	!	!	!LO:LB:g=original	!
=35-	=35-	=35-	=35-	=35-	=35-	=35-	=35-
2D/	tol-	2d\	tol-	2r	.	1rg	.
4AA/	-lis	4c\	-lis	1f	Qui	.	.
4AA/	p(ec)-	4c\	pec-	.	.	.	.
!LO:TX:t=P:problem=kreska pseudotaktowa	!	!	!	!	!	!	!
1BB-	-c(a)-	1d	-ca-	.	.	2r	.
!	!	!	!	!	!	!LO:TX:t=P:problem=kreska pseudotaktowa	!
.	.	.	.	1b-\	tol-	2f\	Qui
=36-	=36-	=36-	=36-	=36-	=36-	=36-	=36-
2F,>\	-ta	2c,<\	-ta	.	.	2f\	tol-
*	*	*	*ij	*	*	*	*
!LO:TX:t=P:problem=kreska pseudotaktowa	!	!LO:TX:t=P:problem=kreska pseudotaktowa	!	!	!	!	!
2F\	pec-	2c\	pec-	4a\	-lis	4f\	-lis
!	!	!	!	!LO:TX:t=P:problem=kreska pseudotaktowa	!	!LO:TX:t=P:problem=kreska pseudotaktowa	!
.	.	.	.	4a\	pec-	4f\	pec-
2B-\	-ca-	2d\	-ca-	2b-\	-ca-	2f\	-ca-
!LO:TX:t=P:problem=kreska pseudotaktowa	!	!LO:TX:t=P:problem=kreska pseudotaktowa	!	!	!	!LO:TX:t=P:problem=kreska pseudotaktowa	!
2F\	-ta	2c\	-ta	2a\	-ta	2f\	-ta
*	*	*	*Xij	*	*	*	*
=37-	=37-	=37-	=37-	=37-	=37-	=37-	=37-
!LO:TX:t=P:problem=kreska pseudotaktowa	!	!	!	!	!	!	!
1G	mun-	1B-	mun-	1b-	mun-	2f\	mun-
.	.	.	.	.	.	2e\	.
*custos:B-	*	*	*	*	*	*	*
!LO:TX:t=P:problem=kreska pseudotaktowa	!	!LO:TX:t=P:problem=kreska pseudotaktowa	!	!LO:TX:t=P:problem=kreska pseudotaktowa	!	!LO:TX:t=P:problem=kreska pseudotaktowa	!
1F,<	-di	1c	-di	1a	-di	1f	-di
!LO:PB:g=original	!	!	!	!	!	!	!
=38-	=38-	=38-	=38-	=38-	=38-	=38-	=38-
2B-\	mi-	2.d\	mi-	2b-\	mi-	2f\	mi-
!LO:TX:t=P:problem=kreska pseudotaktowa	!	!	!	!	!	!LO:TX:t=P:problem=kreska pseudotaktowa	!
2G\	-se-	.	.	2b-\	-ſe-	2g\	-ſe-
!	!	!LO:TX:t=P:problem=kreska pseudotaktowa	!	!	!	!	!
.	.	4d\	-ſe-	.	.	.	.
2A\	-re-	2c#X\	-re-	2a\	-re-	2g\	-re-
!LO:TX:t=P:problem=kreska pseudotaktowa	!	!LO:TX:t=P:problem=kreska pseudotaktowa	!	!LO:TX:t=P:problem=kreska pseudotaktowa	!	!LO:TX:t=P:problem=kreska pseudotaktowa	!
2D/	-re	2d\	-re	2a\	-re	2f\	-re
=39-	=39-	=39-	=39-	=39-	=39-	=39-	=39-
!	!	!	!	!	!	!LO:TX:t=P:problem=kreska pseudotaktowa	!
2A\	no-	2d\	no-	1a	no-	1e	no-
*	*	*custos:d	*	*	*	*	*
!	!	!LO:TX:t=P:problem=kreska pseudotaktowa	!	!	!	!	!
2AA/	-bis.	2c#X\	.	.	.	.	.
!LO:TX:t=P:problem=kreska pseudotaktowa	!	!	!	!	!	!	!
!	!	!LO:LB:g=original	!	!	!	!	!
1D	.	2d,<\	-bis.	2a,>\	-bis	2f,>\	-bis
!	!	!LO:TX:t=P:problem=kreska pseudotaktowa	!	!	!	!LO:TX:t=P:problem=kreska pseudotaktowa	!
.	.	2d\	Qui	2a\	Qui	2f\	Qui
=40-	=40-	=40-	=40-	=40-	=40-	=40-	=40-
00r	.	2d\	tol-	2g/	tol-	2e\	tol-
.	.	4c#X\	-lis	4a/	-lis-	4e\	-lis
!	!	!LO:TX:t=P:problem=kreska pseudotaktowa	!	!LO:TX:t=P:problem=kreska pseudotaktowa	!	!LO:TX:t=P:problem=kreska pseudotaktowa	!
.	.	4c#\	pec-	4a/	-lis	4e\	pec-
!	!	!	!	!LO:LB:g=original	!	!	!
!	!	!LO:TX:t=P:problem=kreska pseudotaktowa	!	!LO:TX:t=P:problem=kreska pseudotaktowa	!	!LO:TX:t=P:problem=kreska pseudotaktowa	!
.	.	1d	-ca-	1a	pec-	1f	-ca-
!	!	!	!	!	!	!LO:LB:g=original	!
=41-	=41-	=41-	=41-	=41-	=41-	=41-	=41-
.	.	2A,</	-ta	2a,>\	-ca-	2e\	-ta
*	*	*	*ij	*	*	*	*
!	!	!LO:TX:t=P:problem=kreska pseudotaktowa	!	!	!	!LO:TX:t=P:problem=kreska pseudotaktowa	!
.	.	2A/	pec-	2a\	-ta	2e\	pec-
.	.	2d\	-ca-	2a\	pec-	2f\	-ca-
!	!	!LO:TX:t=P:problem=kreska pseudotaktowa	!	!LO:TX:t=P:problem=kreska pseudotaktowa	!	!LO:TX:t=P:problem=kreska pseudotaktowa	!
.	.	2A,</	-ta	2a\	-ca-	2e\	-ta
*	*	*	*Xij	*	*	*	*
=42-	=42-	=42-	=42-	=42-	=42-	=42-	=42-
!LO:TX:t=P:problem=kreska pseudotaktowa	!	!	!	!	!	!	!
1r	.	1B-X	mun-	2a\	-ta	1d	mun-
.	.	.	.	2g\	mun-	.	.
!	!	!LO:TX:t=P:problem=kreska pseudotaktowa	!	!LO:TX:t=P:problem=kreska pseudotaktowa	!	!LO:TX:t=P:problem=kreska pseudotaktowa	!
2AA/	Su-	1A	-di	1a	-di	1e	-di
4AA/	-ſci-	.	.	.	.	.	.
!LO:TX:t=P:problem=kreska pseudotaktowa	!	!	!	!	!	!	!
4AA/	-pe	.	.	.	.	.	.
=43-	=43-	=43-	=43-	=43-	=43-	=43-	=43-
*	*ij	*	*	*	*	*	*
*	*	*custos:d	*	*	*	*	*
!	!	!LO:TX:t=P:problem=kreska pseudotaktowa	!	!	!	!	!
2A\	Su-	1re	.	2r	.	2e\	Suſ-
4A\	-ſci-	.	.	1a	Su-	4e\	-ci-
!LO:TX:t=P:problem=kreska pseudotaktowa	!	!	!	!	!	!LO:TX:t=P:problem=kreska pseudotaktowa	!
4A\	-pe	.	.	.	.	4e\	-pe
*	*Xij	*	*	*	*	*	*ij
!	!	!LO:PB:g=original	!	!	!	!	!
2.D/	Su-	2r	.	.	.	2.f\	Suſ-
.	.	1d\	Su-	4a\	-ſci-	.	.
!	!	!	!	!LO:TX:t=P:problem=kreska pseudotaktowa	!	!LO:TX:t=P:problem=kreska pseudotaktowa	!
4D/	-ſci-	.	.	4a\	-pe	4f\	-ci-
=44-	=44-	=44-	=44-	=44-	=44-	=44-	=44-
*	*	*	*	*	*ij	*	*
!LO:TX:t=P:problem=kreska pseudotaktowa	!	!	!	!	!	!	!
1B-X,>	-pe	.	.	2a\	Su-	1d,<	-pe
*	*	*	*	*	*	*	*Xij
.	.	4d\	-sci-	2g\	-ſci-	.	.
!	!	!LO:TX:t=P:problem=kreska pseudotaktowa	!	!	!	!	!
.	.	4d\	-pe	.	.	.	.
2A\	de-	2c#X\	de-	2a,<\	-pe	2e\	de-
*	*	*	*	*	*Xij	*	*
*custos:G#	*	*	*	*	*	*	*
!LO:TX:t=P:problem=kreska pseudotaktowa	!	!LO:TX:t=P:problem=kreska pseudotaktowa	!	!	!	!LO:TX:t=P:problem=kreska pseudotaktowa	!
2d\	-pre-	2d\	-pre-	4a\	de-	2f\	-pre-
!	!	!	!	!LO:TX:t=P:problem=kreska pseudotaktowa	!	!	!
.	.	.	.	4a\	-pre-	.	.
!LO:LB:g=original	!	!	!	!	!	!	!
=45-	=45-	=45-	=45-	=45-	=45-	=45-	=45-
2.G#X\	-ca-	2.d\	-ca-	2.bn\	-ca-	2.e\	-ca-
!LO:TX:t=P:problem=kreska pseudotaktowa	!	!	!	!	!	!LO:TX:t=P:problem=kreska pseudotaktowa	!
4G#\	-ti-	4d\	-ti-	4b\	-ti-	4e\	-tio-
2A\	-o-	2c\ny	-o-	2a\	-o-	2e\	-nem
!LO:TX:t=P:problem=kreska pseudotaktowa	!	!	!	!LO:TX:t=P:problem=kreska pseudotaktowa	!	!	!
2D/	-nem	(>4d\	-nem	2a\	-nem	2f,<\	no-
!	!	!LO:TX:t=P:problem=kreska pseudotaktowa	!	!	!	!	!
.	.	4c\)	.	.	.	.	.
=46-	=46-	=46-	=46-	=46-	=46-	=46-	=46-
!	!	!	!	!	!	!LO:TX:t=P:problem=kreska pseudotaktowa	!
1E	no-	1Bn	no-	2a\	no-	1e	-stram
.	.	.	.	2g#X/	.	.	.
!	!	!	!	!LO:TX:t=P:problem=kreska pseudotaktowa	!	!LO:TX:t=P:problem=kreska pseudotaktowa	!
2AA,</	-stram	2c#X,<\	-stram	1a	-stram	1e	.
!LO:TX:t=P:problem=kreska pseudotaktowa	!	!LO:TX:t=P:problem=kreska pseudotaktowa	!	!	!	!	!
2A\	qui	2c#\	qui	.	.	.	.
!	!	!	!	!LO:LB:g=original	!	!LO:LB:g=original	!
=47-	=47-	=47-	=47-	=47-	=47-	=47-	=47-
2F\	se-	2d\	se-	2r	.	2r	.
!LO:TX:t=P:problem=kreska pseudotaktowa	!	!	!	!	!	!	!
2C#X/	-des	2e\	-des	2a\	Qui	2e\	Qui
*	*ij	*	*	*	*	*	*
!	!	!	!	!LO:TX:t=P:problem=kreska pseudotaktowa	!	!LO:TX:t=P:problem=kreska pseudotaktowa	!
1D	se-	1d	ad	1a	se-	1f	se-
=48-	=48-	=48-	=48-	=48-	=48-	=48-	=48-
!LO:TX:t=P:problem=kreska pseudotaktowa	!	!	!	!	!	!	!
1AA	-des	2c#X\	dex-	2a\	-des	2e\	-des
*	*Xij	*	*	*	*	*	*
!	!	!LO:TX:t=P:problem=kreska pseudotaktowa	!	!LO:TX:t=P:problem=kreska pseudotaktowa	!	!LO:TX:t=P:problem=kreska pseudotaktowa	!
.	.	2A/	-te-	2a\	ad	2e\	ad
!	!	!LO:TX:t=P:problem=kreska pseudotaktowa	!	!	!	!LO:TX:t=P:problem=kreska pseudotaktowa	!
0r	.	1d	-ram	1a	dex-	1f	dex-
!	!	!LO:LB:g=original	!	!	!	!	!
=49-	=49-	=49-	=49-	=49-	=49-	=49-	=49-
.	.	2G/	Pa-	2b-y\	-te-	2f\	-te-
!	!	!LO:TX:t=P:problem=kreska pseudotaktowa	!	!	!	!LO:TX:t=P:problem=kreska pseudotaktowa	!
.	.	2c\ny	.	2gny\	-ram	2e\	-ram
!LO:TX:t=P:problem=kreska pseudotaktowa	!	!	!	!LO:TX:t=P:problem=kreska pseudotaktowa	!	!	!
1r	.	1F	-tris.	1a	Pa-	1f	Pa-
=50-	=50-	=50-	=50-	=50-	=50-	=50-	=50-
!	!	!LO:TX:t=P:problem=kreska pseudotaktowa	!	!LO:TX:t=P:problem=kreska pseudotaktowa	!	!LO:TX:t=P:problem=kreska pseudotaktowa	!
2c\	mi-	1C	.	1g,<	-tris	1e	-tris
!LO:TX:t=P:problem=kreska pseudotaktowa	!	!	!	!	!	!	!
2B-X\	-ſe-	.	.	.	.	.	.
!	!	!LO:TX:t=P:problem=kreska pseudotaktowa	!	!	!	!LO:TX:t=P:problem=kreska pseudotaktowa	!
2A\	-re-	00r	.	2cc\	mi-	1r	.
!LO:TX:t=P:problem=kreska pseudotaktowa	!	!	!	!LO:TX:t=P:problem=kreska pseudotaktowa	!	!	!
2G\ny	-re	.	.	2b-\	-ſe-	.	.
=51-	=51-	=51-	=51-	=51-	=51-	=51-	=51-
2F\	mi-	.	.	2a\	-re-	2f\	mi-
!	!	!	!	!LO:TX:t=P:problem=kreska pseudotaktowa	!	!LO:TX:t=P:problem=kreska pseudotaktowa	!
1c	-ſe-	.	.	2g/	-re	2e\	-se-
*	*	*	*	*	*ij	*	*
.	.	.	.	2f/	mi-	2d\	-re-
1B-\	-re-	.	.	4b-\	-ſe-	4g\	.
!	!	!	!	!	!	!LO:TX:t=P:problem=kreska pseudotaktowa	!
.	.	.	.	4a\	.	4f\	.
=52-	=52-	=52-	=52-	=52-	=52-	=52-	=52-
.	.	.	.	2g\	-re-	4e\	-re
.	.	.	.	.	.	4c/	no-
!	!	!	!	!LO:TX:t=P:problem=kreska pseudotaktowa	!	!	!
4A\	-re	.	.	2a\	-re	1f	.
*	*	*	*	*	*Xij	*	*
!LO:TX:t=P:problem=kreska pseudotaktowa	!	!	!	!	!	!	!
4B-\	.	.	.	.	.	.	.
!LO:LB:g=original	!	!	!	!	!	!	!
2c\	no-	2r	.	1g	no-	.	.
!LO:TX:t=P:problem=kreska pseudotaktowa	!	!	!	!	!	!LO:TX:t=P:problem=kreska pseudotaktowa	!
2C/ny	-bis	1c\	Quo-	.	.	2e\	.
=53-	=53-	=53-	=53-	=53-	=53-	=53-	=53-
!	!	!	!	!LO:TX:t=P:problem=kreska pseudotaktowa	!	!LO:TX:t=P:problem=kreska pseudotaktowa	!
2F,>\	.	.	.	1a	-bis.	1f,<	-bis
!	!	!LO:TX:t=P:problem=kreska pseudotaktowa	!	!	!	!	!
(>2F\	Quo-	[<2A\	-ni-	.	.	.	.
*	*	*	*	*custos:f	*	*	*
!	!	!	!	!	!	!LO:LB:g=original	!
!	!	!	!	!LO:TX:t=P:problem=kreska pseudotaktowa	!	!	!
2D/)	.	2A\]	.	00r	.	2a\	Quo-
!LO:TX:t=P:problem=kreska pseudotaktowa	!	!	!	!	!	!LO:TX:t=P:problem=kreska pseudotaktowa	!
2D/	-ni-	1d\	-am	.	.	2f\	-ni-
=54-	=54-	=54-	=54-	=54-	=54-	=54-	=54-
2G,<\	-am	.	.	.	.	2b-\	-am
2G\	Tu	1B-ny	Tu	.	.	2b-\	Tu
2E\	so-	.	.	.	.	2g\	so-
4E,<\	-lus	4c\	so-	.	.	4g,<\	-lus
!LO:TX:t=P:problem=kreska pseudotaktowa	!	!LO:TX:t=P:problem=kreska pseudotaktowa	!	!	!	!LO:TX:t=P:problem=kreska pseudotaktowa	!
4E\	Tu	4B-\	-l(us)	.	.	4g\	Tu
=55-	=55-	=55-	=55-	=55-	=55-	=55-	=55-
2.F\	so-	4A\	San-	.	.	2.a\	so-
.	.	4B-\	.	.	.	.	.
.	.	1c	.	.	.	.	.
4E\	-l(us)	.	.	.	.	4g\	-l(us)
!LO:TX:t=P:problem=kreska pseudotaktowa	!	!	!	!	!	!LO:TX:t=P:problem=kreska pseudotaktowa	!
1D	San-	.	.	4r	.	1f	san-
.	.	.	.	4f/	Tu	.	.
!	!	!LO:TX:t=P:problem=kreska pseudotaktowa	!	!	!	!	!
.	.	2Bn\	.	4f/	so-	.	.
!	!	!	!	!LO:TX:t=P:problem=kreska pseudotaktowa	!	!	!
.	.	.	.	4f/	-l(us)	.	.
=56-	=56-	=56-	=56-	=56-	=56-	=56-	=56-
2C,</	-ct(us)	2c,<\	-ctus	2f/	san-	2c,</	-ctus
!	!	!LO:TX:t=P:problem=kreska pseudotaktowa	!	!LO:TX:t=P:problem=kreska pseudotaktowa	!	!	!
2C,</	Tu	2c\	Tu	2e/	-ctus	2g\	Tu
2.F\	so-	2.c\	so-	4r	.	2g\	.
.	.	.	.	4a\	Tu	.	.
.	.	.	.	4a\	so-	4f,<\	so-
!LO:TX:t=P:problem=kreska pseudotaktowa	!	!LO:TX:t=P:problem=kreska pseudotaktowa	!	!LO:TX:t=P:problem=kreska pseudotaktowa	!	!LO:TX:t=P:problem=kreska pseudotaktowa	!
4F\	-l(us)	4c\	-lus	4a\	-l(us)	4f\	-lus
!	!	!LO:LB:g=original	!	!	!	!	!
=57-	=57-	=57-	=57-	=57-	=57-	=57-	=57-
*	*ij	*	*ij	*	*	*	*ij
2.B-\	so-	2d\	so-	2b-\	so-	2f\	so-
!	!	!LO:TX:t=P:problem=kreska pseudotaktowa	!	!LO:TX:t=P:problem=kreska pseudotaktowa	!	!LO:TX:t=P:problem=kreska pseudotaktowa	!
.	.	2c\	-lus	2cc\	-l(us)	2f\	-lus
!LO:TX:t=P:problem=kreska pseudotaktowa	!	!	!	!	!	!	!
4A\	-l(us)	.	.	.	.	.	.
*	*Xij	*	*Xij	*	*	*	*Xij
2.G\	Do-	2.B-\ny	Do-	2g\	Do-	2f\	Do-
!	!	!	!	!LO:TX:t=P:problem=kreska pseudotaktowa	!	!LO:TX:t=P:problem=kreska pseudotaktowa	!
.	.	.	.	2b-\	-mi-	2e\	-mi-
!	!	!LO:TX:t=P:problem=kreska pseudotaktowa	!	!	!	!	!
4G\	-mi-	4B-\	-mi-	.	.	.	.
=58-	=58-	=58-	=58-	=58-	=58-	=58-	=58-
!	!	!LO:TX:t=P:problem=kreska pseudotaktowa	!	!	!	!	!
2F,>\	-n(us)	1c	-n(us)	2a,<\	-n(us)	2f,<\	-nus
!LO:TX:t=P:problem=kreska pseudotaktowa	!	!	!	!LO:TX:t=P:problem=kreska pseudotaktowa	!	!LO:TX:t=P:problem=kreska pseudotaktowa	!
2F\	Tu	.	.	2a\	Tu	2f\	Tu
!LO:LB:g=original	!	!	!	!	!	!	!
2F\	so-	2r	.	2bn\	so-	2g\	so-
!LO:TX:t=P:problem=kreska pseudotaktowa	!	!LO:TX:t=P:problem=kreska pseudotaktowa	!	!	!	!LO:TX:t=P:problem=kreska pseudotaktowa	!
2E\	-lus	2c\	Tu	2cc\	-lus	2g\	-l(us)
!	!	!	!	!	!	!LO:LB:g=original	!
=59-	=59-	=59-	=59-	=59-	=59-	=59-	=59-
*	*	*	*	*	*ij	*	*
2D\	so-	2d\	so-	2cc\	so-	2f\	so-
4G\	-lus	4B-,<\	-lus	4b-\	-lus	4f,<\	-lus
*	*	*	*	*	*Xij	*	*
!LO:TX:t=P:problem=kreska pseudotaktowa	!	!LO:TX:t=P:problem=kreska pseudotaktowa	!	!LO:TX:t=P:problem=kreska pseudotaktowa	!	!LO:TX:t=P:problem=kreska pseudotaktowa	!
4G\	al-	4B-\	al-	4b-\	al-	4f\	al-
2C/	-tiſ-	2c\	-tiſ-	2b-\	-tiſ-	2e\	-tiſ-
4F\	-si-	4c\	-si-	4a\	-si-	4f\	-si-
*	*	*	*	*custos:b-	*	*	*
!LO:TX:t=P:problem=kreska pseudotaktowa	!	!LO:TX:t=P:problem=kreska pseudotaktowa	!	!LO:TX:t=P:problem=kreska pseudotaktowa	!	!LO:TX:t=P:problem=kreska pseudotaktowa	!
4F\	-m(us)	4c\	-m(us)	4a\	-m(us)	4f\	-m(us)
!	!	!	!	!LO:LB:g=original	!	!	!
=60-	=60-	=60-	=60-	=60-	=60-	=60-	=60-
2.BB-/	Je-	2.d\	Je-	2.b-\	Je-	2.f\	Je-
!	!	!LO:TX:t=P:problem=kreska pseudotaktowa	!	!LO:TX:t=P:problem=kreska pseudotaktowa	!	!	!
4BB-/	-su	4d\	-su	4b-\	-su	4f\	-su
*	*ij	*	*ij	*	*ij	*	*ij
2C/	Je-	2c\	Je-	2b-\	Je-	2e\	Je-
!LO:TX:t=P:problem=kreska pseudotaktowa	!	!LO:TX:t=P:problem=kreska pseudotaktowa	!	!LO:TX:t=P:problem=kreska pseudotaktowa	!	!LO:TX:t=P:problem=kreska pseudotaktowa	!
2F\	-su	2c\	-su	2a\	-su	2f\	-su
*	*Xij	*	*Xij	*	*Xij	*	*Xij
=61-	=61-	=61-	=61-	=61-	=61-	=61-	=61-
!	!	!LO:TX:t=P:problem=kreska pseudotaktowa	!	!	!	!	!
1C	x-	1c	x-	1g	x-	2f\	Chri-
!	!	!	!	!	!	!LO:TX:t=P:problem=kreska pseudotaktowa	!
.	.	.	.	.	.	2e\	.
!LO:TX:t=P:problem=kreska pseudotaktowa	!	!LO:TX:t=P:problem=kreska pseudotaktowa	!	!	!	!LO:TX:t=P:problem=kreska pseudotaktowa	!
1F	-te.	1c	-te	2a,<\	-te	1f	-ste
!	!	!	!	!LO:TX:t=P:problem=kreska pseudotaktowa	!	!	!
.	.	.	.	2cc\	Cum	.	.
!	!	!LO:LB:g=original	!	!	!	!	!
=62-	=62-	=62-	=62-	=62-	=62-	=62-	=62-
00r	.	00r	.	2.f/	S(an)-	0r	.
.	.	.	.	4f,</	-cto	.	.
*	*	*	*	*	*ij	*	*
.	.	.	.	2.b-\	S(an)-	.	.
!	!	!	!	!LO:TX:t=P:problem=kreska pseudotaktowa	!	!	!
.	.	.	.	4a\	-cto	.	.
*	*	*	*	*	*Xij	*	*
=63-	=63-	=63-	=63-	=63-	=63-	=63-	=63-
!	!	!	!	!	!	!LO:TX:t=P:problem=kreska pseudotaktowa	!
.	.	.	.	2.g/	Spi-	1r	.
.	.	.	.	4g/	-ri-	.	.
.	.	.	.	2f,</	-tu	4r	.
.	.	.	.	.	.	4f\	in
!	!	!	!	!LO:TX:t=P:problem=kreska pseudotaktowa	!	!	!
.	.	.	.	2a\	in	4f\	glo-
.	.	.	.	.	.	8f\	-ri-
!	!	!	!	!	!	!LO:TX:t=P:problem=kreska pseudotaktowa	!
.	.	.	.	.	.	8f\	-a
=64-	=64-	=64-	=64-	=64-	=64-	=64-	=64-
!	!	!LO:TX:t=P:problem=kreska pseudotaktowa	!	!	!	!	!
00r	.	0r	.	2g\	glo-	2e\	De-
!	!	!	!	!	!	!LO:TX:t=P:problem=kreska pseudotaktowa	!
.	.	.	.	1cc	.	2a\	-i
!	!	!	!	!	!	!LO:LB:g=original	!
.	.	.	.	.	.	2d\	Pa-
!	!	!	!	!LO:TX:t=P:problem=kreska pseudotaktowa	!	!LO:TX:t=P:problem=kreska pseudotaktowa	!
.	.	.	.	2bn\	-ri-	2g\	-tris
=65-	=65-	=65-	=65-	=65-	=65-	=65-	=65-
.	.	2r	.	2cc,<\	-a	2e\	a-
!	!	!LO:TX:t=P:problem=kreska pseudotaktowa	!	!	!	!	!
.	.	2c\	Cum	2g\	in	2e,<\	-men
.	.	2.F/	San-	2a\	glo-	2f\	De-
!	!	!	!	!	!	!LO:TX:t=P:problem=kreska pseudotaktowa	!
.	.	.	.	4a\	-ri-	2c/	-i
!	!	!LO:TX:t=P:problem=kreska pseudotaktowa	!	!LO:TX:t=P:problem=kreska pseudotaktowa	!	!	!
.	.	4F/	-cto	4a\	-a	.	.
!	!	!	!	!LO:LB:g=original	!	!	!
=66-	=66-	=66-	=66-	=66-	=66-	=66-	=66-
*	*	*	*ij	*	*	*	*
!LO:TX:t=P:problem=kreska pseudotaktowa	!	!	!	!	!	!	!
0r	.	2B-\	San-	4f/	De-	4d\	Pa-
.	.	.	.	4g/	-i	4e\	.
!	!	!LO:TX:t=P:problem=kreska pseudotaktowa	!	!	!	!	!
.	.	2A\	-cto	4a/	Pa-	1f	-tris
*	*	*	*Xij	*	*	*	*
!	!	!	!	!LO:TX:t=P:problem=kreska pseudotaktowa	!	!	!
.	.	.	.	4a/	-tris	.	.
.	.	2.G/	Spi-	1b-y	a-	.	.
!	!	!	!	!	!	!LO:TX:t=P:problem=kreska pseudotaktowa	!
.	.	.	.	.	.	2e\	a-
!	!	!LO:TX:t=P:problem=kreska pseudotaktowa	!	!	!	!	!
.	.	4G/	-ri-	.	.	.	.
=67-	=67-	=67-	=67-	=67-	=67-	=67-	=67-
!	!	!	!	!LO:TX:t=P:problem=kreska pseudotaktowa	!	!	!
4r	.	2F,</	-tu	1a	-men	2f,<\	-men
4F\	in	.	.	.	.	.	.
!	!	!LO:TX:t=P:problem=kreska pseudotaktowa	!	!	!	!	!
4F\	glo-	2A\	in	.	.	2f\	a-
8F\	-ri-	.	.	.	.	.	.
!LO:TX:t=P:problem=kreska pseudotaktowa	!	!	!	!	!	!	!
8F\	-a	.	.	.	.	.	.
!	!	!	!	!LO:TX:t=P:problem=kreska pseudotaktowa	!	!	!
2E\	De-	2G/	glo-	0r	.	2g\	.
!LO:TX:t=P:problem=kreska pseudotaktowa	!	!	!	!	!	!LO:TX:t=P:problem=kreska pseudotaktowa	!
2A\	-i	1c\	.	.	.	2e\	.
=68-	=68-	=68-	=68-	=68-	=68-	=68-	=68-
2D\	Pa-	.	.	.	.	2f\	.
!LO:TX:t=P:problem=kreska pseudotaktowa	!	!LO:TX:t=P:problem=kreska pseudotaktowa	!	!	!	!	!
2G\	-tris	2Bn\	-ri-	.	.	2d\	.
!LO:LB:g=original	!	!	!	!	!	!LO:TX:t=P:problem=kreska pseudotaktowa	!
2C/	a-	2c,<\	-a	4r	.	1e	-men
.	.	.	.	4cc\	in	.	.
!LO:TX:t=P:problem=kreska pseudotaktowa	!	!LO:TX:t=P:problem=kreska pseudotaktowa	!	!	!	!	!
2C/	-men	2c\	in	4cc\	glo-	.	.
.	.	.	.	8cc\	-ri-	.	.
!	!	!	!	!LO:TX:t=P:problem=kreska pseudotaktowa	!	!	!
.	.	.	.	8cc\	-a	.	.
=69-	=69-	=69-	=69-	=69-	=69-	=69-	=69-
2.F\	De-	2c\	glo-	2a\	De-	2r	.
*	*	*	*	*	*	*	*ij
.	.	4A/	-ri-	2dd\	-i	2f\	a-
*	*	*custos:B-	*	*	*	*	*
!	!	!LO:TX:t=P:problem=kreska pseudotaktowa	!	!	!	!	!
4F\	-i	4A/	-a	.	.	.	.
!	!	!LO:LB:g=original	!	!	!	!LO:TX:t=P:problem=kreska pseudotaktowa	!
2F\	Pa-	2B-y\	De-	2g/	Pa-	1g	-men
*	*	*	*	*	*	*	*Xij
!LO:TX:t=P:problem=kreska pseudotaktowa	!	!LO:TX:t=P:problem=kreska pseudotaktowa	!	!LO:TX:t=P:problem=kreska pseudotaktowa	!	!	!
2E\	-tris	2G/	-i	2cc\	-tris	.	.
=70-	=70-	=70-	=70-	=70-	=70-	=70-	=70-
2F\	a-	2A/	Pa-	2a\	a-	2f,<\	.
!	!	!LO:TX:t=P:problem=kreska pseudotaktowa	!	!LO:TX:t=P:problem=kreska pseudotaktowa	!	!LO:TX:t=P:problem=kreska pseudotaktowa	!
2D/	.	2F/	-tris	2bn\	-men	2f\	Cum
!LO:TX:t=P:problem=kreska pseudotaktowa	!	!	!	!	!	!	!
1C	-men	2G/	a-	4cc\	a-	2.c/	San-
.	.	.	.	4g\	.	.	.
!	!	!LO:TX:t=P:problem=kreska pseudotaktowa	!	!	!	!	!
.	.	2G/	-men	4cc\	.	.	.
!	!	!	!	!LO:TX:t=P:problem=kreska pseudotaktowa	!	!LO:TX:t=P:problem=kreska pseudotaktowa	!
.	.	.	.	4b-y\	.	4c/	-cto
!	!	!	!	!	!	!LO:LB:g=original	!
=71-	=71-	=71-	=71-	=71-	=71-	=71-	=71-
!	!	!LO:TX:t=P:problem=kreska pseudotaktowa	!	!	!	!	!
00r	.	0r	.	4a\	.	2f\	San-
.	.	.	.	4b-\	.	.	.
!	!	!	!	!	!	!LO:TX:t=P:problem=kreska pseudotaktowa	!
.	.	.	.	1cc	.	2e\	-cto
.	.	.	.	.	.	2.d\	.
!	!	!	!	!LO:TX:t=P:problem=kreska pseudotaktowa	!	!	!
.	.	.	.	2bn\	.	.	.
!	!	!	!	!	!	!LO:TX:t=P:problem=kreska pseudotaktowa	!
.	.	.	.	.	.	4d\	Spi-
!	!	!	!	!LO:LB:g=original	!	!	!
=72-	=72-	=72-	=72-	=72-	=72-	=72-	=72-
.	.	4r	.	2cc,>\	-men	2e\	-ri-
.	.	4c\	in	.	.	.	.
!	!	!	!	!LO:TX:t=P:problem=kreska pseudotaktowa	!	!	!
.	.	4c\	glo-	2g/	in	2e\	-tu
.	.	8c\	-ri-	.	.	.	.
!	!	!LO:TX:t=P:problem=kreska pseudotaktowa	!	!	!	!	!
.	.	8c\	-a	.	.	.	.
.	.	2A\	De-	2.a\	glo-	4g\	in
.	.	.	.	.	.	4c\	glo-
!	!	!LO:TX:t=P:problem=kreska pseudotaktowa	!	!	!	!	!
.	.	2d\	-i	.	.	1f\	.
!	!	!	!	!LO:TX:t=P:problem=kreska pseudotaktowa	!	!	!
.	.	.	.	4a\	-ri-	.	.
=73-	=73-	=73-	=73-	=73-	=73-	=73-	=73-
!LO:TX:t=P:problem=kreska pseudotaktowa	!	!	!	!	!	!	!
1r	.	2G/	Pa-	2b-y,>\	-a	.	.
!	!	!LO:TX:t=P:problem=kreska pseudotaktowa	!	!LO:TX:t=P:problem=kreska pseudotaktowa	!	!LO:TX:t=P:problem=kreska pseudotaktowa	!
.	.	2c\	-tris	2b-\	in	2e\	ri-
2r	.	2F/	a-	2.a\	glo-	2f,<\	-a
!LO:TX:t=P:problem=kreska pseudotaktowa	!	!LO:TX:t=P:problem=kreska pseudotaktowa	!	!	!	!	!
2F\	Cum	2A/	.	.	.	2f\	in
!	!	!	!	!LO:TX:t=P:problem=kreska pseudotaktowa	!	!	!
.	.	.	.	4a\	-ri-	.	.
=74-	=74-	=74-	=74-	=74-	=74-	=74-	=74-
2.C/	San-	2G/	.	1cc,<	-a	2e\	glo-
!	!	!LO:TX:t=P:problem=kreska pseudotaktowa	!	!	!	!	!
.	.	2c\	.	.	.	4e\	-ri-
!	!	!	!	!	!	!LO:TX:t=P:problem=kreska pseudotaktowa	!
4C/	-cto	.	.	.	.	4e\	-a
*	*ij	*	*	*	*	*	*
!	!	!LO:LB:g=original	!	!LO:TX:t=P:problem=kreska pseudotaktowa	!	!	!
2.F\	San-	4A\	.	1rg	.	4c/	De-
.	.	4B-\	.	.	.	4c/	-i
.	.	1c\	.	.	.	4g\	Pa-
!LO:TX:t=P:problem=kreska pseudotaktowa	!	!	!	!	!	!LO:TX:t=P:problem=kreska pseudotaktowa	!
4E\	-cto	.	.	.	.	4g\	-tris
*	*Xij	*	*	*	*	*	*
=75-	=75-	=75-	=75-	=75-	=75-	=75-	=75-
2.D/	Spi-	.	.	2r	.	1f	a-
!	!	!LO:TX:t=P:problem=kreska pseudotaktowa	!	!LO:TX:t=P:problem=kreska pseudotaktowa	!	!	!
.	.	2Bn\	.	2f/	in	.	.
4D/	-ri-	.	.	.	.	.	.
2C,</	-tu	2c,>\	-men	2cc\	glo-	2e,<\	-men
!LO:TX:t=P:problem=kreska pseudotaktowa	!	!LO:TX:t=P:problem=kreska pseudotaktowa	!	!	!	!	!
2F\	in	2c\	in	4a\	-ri-	2f\	in
!	!	!	!	!LO:TX:t=P:problem=kreska pseudotaktowa	!	!	!
.	.	.	.	4a,<\	-a	.	.
=76-	=76-	=76-	=76-	=76-	=76-	=76-	=76-
4BB-/	glo-	4d\	glo-	4b-\	De-	2f\	glo-
8BB-/	-ri-	8d\	-ri-	4b-,>\	-i	.	.
8BB-/	-a	8d\	-a	.	.	.	.
4F\	De-	4c\	De-	4a\	Pa-	4f\	-ri-
!LO:TX:t=P:problem=kreska pseudotaktowa	!	!LO:TX:t=P:problem=kreska pseudotaktowa	!	!LO:TX:t=P:problem=kreska pseudotaktowa	!	!LO:TX:t=P:problem=kreska pseudotaktowa	!
4F\	-i	4c\	-i	4a\	-tris	4f\	-a
!LO:LB:g=original	!	!	!	!	!	!	!
2C/	Pa-	2c\	Pa-	2g\	a-	4e\	De-
.	.	.	.	.	.	4e\	-i
!LO:TX:t=P:problem=kreska pseudotaktowa	!	!LO:TX:t=P:problem=kreska pseudotaktowa	!	!	!	!LO:TX:t=P:problem=kreska pseudotaktowa	!
2F\	-tris	2c\	-tris	2a\	-men	2f\	Pa-
=77-	=77-	=77-	=77-	=77-	=77-	=77-	=77-
*	*	*	*	*	*ij	*	*
!	!	!LO:TX:t=P:problem=kreska pseudotaktowa	!	!LO:TX:t=P:problem=kreska pseudotaktowa	!	!	!
2c\	a-	1c	a-	1g	a-	2f\	-tris
2C/	.	.	.	.	.	2e\	a-
!LO:TX:t=P:problem=kreska pseudotaktowa	!	!LO:TX:t=P:problem=kreska pseudotaktowa	!	!	!	!LO:TX:t=P:problem=kreska pseudotaktowa	!
1F	-men	1c	-men	2a,<\	-men	1f,<	-men
*	*	*	*	*	*Xij	*	*
!	!	!	!	!LO:TX:t=P:problem=kreska pseudotaktowa	!	!	!
.	.	.	.	2cc\	a-	.	.
!	!	!	!	!LO:LB:g=original	!	!LO:LB:g=original	!
=78-	=78-	=78-	=78-	=78-	=78-	=78-	=78-
00r	.	00r	.	2a\	.	2r	.
!	!	!	!	!LO:TX:t=P:problem=kreska pseudotaktowa	!	!LO:TX:t=P:problem=kreska pseudotaktowa	!
.	.	.	.	2f/	.	2f\	a-
.	.	.	.	2g\	.	2e\	.
!	!	!	!	!LO:TX:t=P:problem=kreska pseudotaktowa	!	!	!
.	.	.	.	2a\	.	2c/	.
=79-	=79-	=79-	=79-	=79-	=79-	=79-	=79-
.	.	.	.	2b-\	.	2d\	.
!	!	!	!	!LO:TX:t=P:problem=kreska pseudotaktowa	!	!LO:TX:t=P:problem=kreska pseudotaktowa	!
.	.	.	.	2g\	.	2e\	.
.	.	.	.	2.a\	.	2f\	.
.	.	.	.	.	.	2d\	.
!	!	!	!	!LO:TX:t=P:problem=kreska pseudotaktowa	!	!	!
.	.	.	.	4bn\	-men	.	.
=80-	=80-	=80-	=80-	=80-	=80-	=80-	=80-
!LO:TX:t=P:problem=kreska pseudotaktowa	!	!LO:TX:t=P:problem=kreska pseudotaktowa	!	!	!	!	!
0r	.	1rA	.	4cc\	a-	2c/	.
.	.	.	.	4g\	.	.	.
.	.	.	.	4a\	.	1f	-men
!	!	!	!	!LO:TX:t=P:problem=kreska pseudotaktowa	!	!	!
.	.	.	.	4f/	.	.	.
!	!	!	!	!LO:TX:t=P:problem=kreska pseudotaktowa	!	!	!
.	.	2r	.	1g	.	.	.
!	!	!LO:TX:t=P:problem=kreska pseudotaktowa	!	!	!	!LO:TX:t=P:problem=kreska pseudotaktowa	!
.	.	2c\	a-	.	.	2e\	.
=81-	=81-	=81-	=81-	=81-	=81-	=81-	=81-
2r	.	2A/	.	0cc	.	4r	.
.	.	.	.	.	.	4f\	a-
!LO:TX:t=P:problem=kreska pseudotaktowa	!	!LO:TX:t=P:problem=kreska pseudotaktowa	!	!	!	!	!
2F\	a-	2F/	.	.	.	4a\	.
.	.	.	.	.	.	4f\	.
2E\	.	2G/	.	.	.	2g\	.
!LO:TX:t=P:problem=kreska pseudotaktowa	!	!LO:TX:t=P:problem=kreska pseudotaktowa	!	!	!	!LO:TX:t=P:problem=kreska pseudotaktowa	!
2C/	.	2A/	.	.	.	2e\	.
!	!	!LO:LB:g=original	!	!	!	!	!
=82-	=82-	=82-	=82-	=82-	=82-	=82-	=82-
!	!	!	!	!LO:TX:t=P:problem=kreska pseudotaktowa	!	!	!
2D\	.	2B-y\	.	1b-X	.	2f\	.
!LO:TX:t=P:problem=kreska pseudotaktowa	!	!LO:TX:t=P:problem=kreska pseudotaktowa	!	!	!	!	!
2E\	.	2G/	-men	.	.	2g\	.
2F\	.	2.A\	a-	2a\	.	2c/	.
!LO:TX:t=P:problem=kreska pseudotaktowa	!	!	!	!LO:TX:t=P:problem=kreska pseudotaktowa	!	!LO:TX:t=P:problem=kreska pseudotaktowa	!
2D/	.	.	.	2dd\	.	2f\	.
!	!	!LO:TX:t=P:problem=kreska pseudotaktowa	!	!	!	!	!
.	.	4B-\	.	.	.	.	.
=83-	=83-	=83-	=83-	=83-	=83-	=83-	=83-
2C/	.	0c	.	2g\	.	2e\	.
2F\	.	.	.	2a\	.	1f	.
1C	.	.	.	1g	.	.	.
.	.	.	.	.	.	2e\	.
=84-	=84-	=84-	=84-	=84-	=84-	=84-	=84-
!LO:TX:t=P:problem=końcowa kreska pseudotaktowa	!	!LO:TX:t=P:problem=końcowa kreska pseudotaktowa	!	!LO:TX:t=P:problem=końcowa kreska pseudotaktowa	!	!LO:TX:t=P:problem=końcowa kreska pseudotaktowa	!
0F;>	-men.	0c;>	-men.	0a;>	-men.	0f;>	-men.
=-	=-	=-	=-	=-	=-	=-	=-
*-	*-	*-	*-	*-	*-	*-	*-
!!!system-decoration: [(s1,s2,s3,s4)]
!!!RDF**kern: > = above
!!!RDF**kern: < = below
!!!EED: Antoni Szymański
!!!EST: 2021-07-28
!!!AIN: 1 alto 1 empty 2 tenor
!!!ENC: Anastazja Marusiak
!!!END: 2021-07-02
